img/improved-society.svg

<svg width="48" height="48" viewBox="0 0 48 48" fill="none" xmlns="http://www.w3.org/2000/svg">
<g clip-path="url(#clip0)">
<path d="M48 27.575C48 16.32 46.403 0 26.452 0C6.50096 0 17.257 19.311 5.12896 26.765C-8.19004 34.95 6.90896 48 22.195 48C33.97 48 48 42.173 48 27.575Z" fill="#E2F9C3"/>
<path d="M20.143 15C19.214 15 18.409 15.38 17.895 15.958C17.38 16.536 17.143 17.274 17.143 18C17.143 18.726 17.38 19.464 17.895 20.042C18.409 20.621 19.215 21 20.143 21C21.071 21 21.877 20.62 22.391 20.042C22.905 19.464 23.143 18.726 23.143 18C23.143 17.274 22.905 16.536 22.391 15.958C21.877 15.379 21.071 15 20.143 15ZM27.857 15C26.929 15 26.123 15.38 25.609 15.958C25.095 16.536 24.857 17.274 24.857 18C24.857 18.726 25.095 19.464 25.609 20.042C26.123 20.621 26.929 21 27.857 21C28.786 21 29.591 20.62 30.106 20.042C30.62 19.464 30.857 18.726 30.857 18C30.857 17.274 30.62 16.536 30.106 15.958C29.591 15.379 28.786 15 27.857 15ZM20.143 16.714C20.643 16.714 20.909 16.871 21.109 17.096C21.309 17.321 21.429 17.655 21.429 18C21.429 18.345 21.309 18.679 21.109 18.904C20.909 19.129 20.643 19.286 20.143 19.286C19.643 19.286 19.377 19.129 19.177 18.904C18.977 18.679 18.857 18.345 18.857 18C18.857 17.655 18.977 17.321 19.177 17.096C19.377 16.871 19.643 16.714 20.143 16.714ZM27.857 16.714C28.357 16.714 28.623 16.871 28.823 17.096C29.023 17.321 29.143 17.655 29.143 18C29.143 18.345 29.023 18.679 28.823 18.904C28.623 19.129 28.357 19.286 27.857 19.286C27.357 19.286 27.091 19.129 26.891 18.904C26.691 18.679 26.571 18.345 26.571 18C26.571 17.655 26.691 17.321 26.891 17.096C27.091 16.871 27.357 16.714 27.857 16.714ZM16.286 21C15.5 21 14.802 21.326 14.359 21.824C13.9368 22.3074 13.7072 22.9292 13.714 23.571C13.714 24.084 13.949 24.573 14.248 25.019C12.932 25.753 12 27.109 12 28.714H13.714C13.7124 28.3758 13.7779 28.0407 13.9066 27.728C14.0353 27.4153 14.2247 27.1312 14.4638 26.8921C14.703 26.6531 14.9872 26.4638 15.2999 26.3352C15.6127 26.2066 15.9478 26.1413 16.286 26.143C16.9332 26.1412 17.5569 26.3856 18.0306 26.8266C18.5043 27.2677 18.7926 27.8723 18.837 28.518C17.7469 29.7568 17.1448 31.3499 17.143 33H18.857C18.857 30.15 21.15 27.857 24 27.857C26.85 27.857 29.143 30.15 29.143 33H30.857C30.857 31.284 30.212 29.72 29.163 28.518C29.2074 27.8723 29.4957 27.2677 29.9694 26.8266C30.4431 26.3856 31.0668 26.1412 31.714 26.143C32.0522 26.1413 32.3873 26.2066 32.7001 26.3352C33.0128 26.4638 33.297 26.6531 33.5362 26.8921C33.7753 27.1312 33.9647 27.4153 34.0934 27.728C34.2221 28.0407 34.2876 28.3758 34.286 28.714H36C36 27.139 35.129 25.771 33.854 25.026C34.144 24.584 34.286 24.076 34.286 23.571C34.2931 22.9292 34.0635 22.3072 33.641 21.824C33.198 21.326 32.5 21 31.714 21C30.928 21 30.23 21.326 29.787 21.824C29.3652 22.3076 29.136 22.9294 29.143 23.571C29.143 24.076 29.285 24.584 29.575 25.026C28.7098 25.5292 28.0473 26.3186 27.702 27.258C27.3605 27.0319 26.9993 26.8367 26.623 26.675C27.1457 26.0434 27.4309 25.2488 27.429 24.429C27.429 23.595 27.155 22.75 26.569 22.092C25.985 21.432 25.072 21 24 21C22.928 21 22.016 21.433 21.43 22.092C20.845 22.75 20.571 23.595 20.571 24.429C20.571 25.228 20.84 26.029 21.377 26.675C20.9986 26.8376 20.6355 27.0337 20.292 27.261C19.9172 26.3072 19.2207 25.5144 18.323 25.02C18.623 24.573 18.857 24.084 18.857 23.571C18.857 22.952 18.655 22.321 18.213 21.824C17.77 21.326 17.071 21 16.286 21ZM16.286 22.714C16.643 22.714 16.802 22.817 16.93 22.962C17.059 23.107 17.143 23.333 17.143 23.572C17.143 23.811 17.059 24.036 16.93 24.181C16.802 24.326 16.643 24.429 16.286 24.429C15.929 24.429 15.77 24.326 15.641 24.181C15.512 24.036 15.429 23.81 15.429 23.571C15.429 23.332 15.513 23.107 15.641 22.962C15.769 22.817 15.929 22.714 16.286 22.714ZM24 22.714C24.643 22.714 25.016 22.924 25.287 23.23C25.558 23.536 25.714 23.976 25.714 24.429C25.714 24.882 25.559 25.322 25.287 25.627C25.015 25.932 24.643 26.143 24 26.143C23.357 26.143 22.984 25.933 22.713 25.627C22.442 25.321 22.286 24.881 22.286 24.429C22.286 23.977 22.441 23.535 22.713 23.229C22.985 22.923 23.357 22.714 24 22.714ZM31.714 22.714C32.071 22.714 32.23 22.817 32.359 22.962C32.488 23.107 32.571 23.333 32.571 23.572C32.571 23.811 32.487 24.036 32.359 24.181C32.231 24.326 32.071 24.429 31.714 24.429C31.357 24.429 31.198 24.326 31.07 24.181C30.941 24.036 30.857 23.81 30.857 23.571C30.857 23.332 30.941 23.107 31.07 22.962C31.198 22.817 31.357 22.714 31.714 22.714Z" fill="#3A8241"/>
</g>
<defs>
<clipPath id="clip0">
<rect width="48" height="48" fill="white"/>
</clipPath>
</defs>
</svg>

<svg width="48" height="48" fill="none" xmlns="http://www.w3.org/2000/svg"><g clip-path="url(#clip0)"><path d="M48 27.575C48 16.32 46.403 0 26.452 0 6.501 0 17.257 19.311 5.129 26.765-8.19 34.95 6.909 48 22.195 48 33.97 48 48 42.173 48 27.575z" fill="#E2F9C3"/><path d="M20.143 15c-.929 0-1.734.38-2.248.958-.515.578-.752 1.316-.752 2.042 0 .726.237 1.464.752 2.042.514.579 1.32.958 2.248.958.928 0 1.734-.38 2.248-.958A3.058 3.058 0 0023.143 18c0-.726-.238-1.464-.752-2.042-.514-.579-1.32-.958-2.248-.958zm7.714 0c-.928 0-1.734.38-2.248.958A3.058 3.058 0 0024.857 18c0 .726.238 1.464.752 2.042.514.579 1.32.958 2.248.958.929 0 1.734-.38 2.249-.958.514-.578.751-1.316.751-2.042 0-.726-.237-1.464-.751-2.042-.515-.579-1.32-.958-2.249-.958zm-7.714 1.714c.5 0 .766.157.966.382.2.225.32.559.32.904s-.12.679-.32.904c-.2.225-.466.382-.966.382-.5 0-.766-.157-.966-.382-.2-.225-.32-.559-.32-.904s.12-.679.32-.904c.2-.225.466-.382.966-.382zm7.714 0c.5 0 .766.157.966.382.2.225.32.559.32.904s-.12.679-.32.904c-.2.225-.466.382-.966.382-.5 0-.766-.157-.966-.382-.2-.225-.32-.559-.32-.904s.12-.679.32-.904c.2-.225.466-.382.966-.382zM16.286 21c-.786 0-1.484.326-1.927.824a2.614 2.614 0 00-.645 1.747c0 .513.235 1.002.534 1.448-1.316.734-2.248 2.09-2.248 3.695h1.714a2.559 2.559 0 012.572-2.571 2.55 2.55 0 012.551 2.375A6.796 6.796 0 0017.143 33h1.714A5.13 5.13 0 0124 27.857 5.13 5.13 0 0129.143 33h1.714c0-1.716-.645-3.28-1.694-4.482a2.55 2.55 0 012.551-2.375 2.56 2.56 0 012.572 2.571H36c0-1.575-.871-2.943-2.146-3.688.29-.442.432-.95.432-1.455a2.61 2.61 0 00-.645-1.747C33.198 21.326 32.5 21 31.714 21s-1.484.326-1.927.824a2.614 2.614 0 00-.644 1.747c0 .505.142 1.013.432 1.455a4.297 4.297 0 00-1.873 2.232 6.863 6.863 0 00-1.079-.583 3.51 3.51 0 00.806-2.246c0-.834-.274-1.679-.86-2.337C25.985 21.432 25.072 21 24 21c-1.072 0-1.984.433-2.57 1.092-.585.658-.859 1.503-.859 2.337 0 .799.269 1.6.806 2.246a6.909 6.909 0 00-1.085.586 4.392 4.392 0 00-1.969-2.241c.3-.447.534-.936.534-1.449 0-.619-.202-1.25-.644-1.747-.443-.498-1.142-.824-1.927-.824zm0 1.714c.357 0 .516.103.644.248a.937.937 0 01.213.61.934.934 0 01-.213.609c-.128.145-.287.248-.644.248-.357 0-.516-.103-.645-.248a.936.936 0 01-.212-.61.94.94 0 01.212-.609c.128-.145.288-.248.645-.248zm7.714 0c.643 0 1.016.21 1.287.516.271.306.427.746.427 1.199 0 .453-.155.893-.427 1.198-.272.305-.644.516-1.287.516-.643 0-1.016-.21-1.287-.516-.271-.306-.427-.746-.427-1.198 0-.452.155-.894.427-1.2.272-.306.644-.515 1.287-.515zm7.714 0c.357 0 .516.103.645.248a.936.936 0 01.212.61.94.94 0 01-.212.609c-.128.145-.288.248-.645.248-.357 0-.516-.103-.644-.248a.937.937 0 01-.213-.61c0-.239.084-.464.213-.609.128-.145.287-.248.644-.248z" fill="#3A8241"/></g><defs><clipPath id="clip0"><path fill="#fff" d="M0 0h48v48H0z"/></clipPath></defs></svg>
